X:154
T:RVW2/2/154 As I Walked Over Salisbury Plain
C:Mr. and Mrs. Verrall, Horsham, Sussex, 8 October 1904
L:1/4
Q:1/4=120
M:4/4
I:linebreak $
K:F
"^(Editorial suggestion " D | A F E D |"^(a)" A2 F E | D3 (c/d/) | c A G A | 
w: As|I walked o- ver|Salis- bu- ry|plain O _|there I met a|
"^(b)" (c e) (d/c/) =B | A3 (A/_c/) |$ c A G A | c2 d D | (F E) D C | c c d c/B/ |"^(c)" A2 F E | 
w: scamp- * ing _ young|blade He _|kissed me and en-|ti- cï¿½d me|so _ that a-|long with him I was|forced for to|
D3 ||$ D | A F E D |"^(a) var." A A E F | D3 c/d/ | c A G A |"^(b) var." c2 e =B | A3 A/_c/ |$ 
w: go.||||||||
c A G A | c2 d D | F E D C | c c d c/B/ |"^(c) var." (A3/2 G/) F E | D3 ||$"^Verse 5" A2 F E | 
w: ||||||Ear- ly next|
D2 F G | A2 F E | D3 A/B/ |$ (c A) G A | (c e) d =B | A3 A |[M:3/2] c/c/ G c2 d D |$ 
w: morn- ing my|love he a-|rose and so|nim- * bly he|slipped _ on his|clothes. Straight|to the high- way he set|
[M:4/4] (F E) D C | c c d (c/B/) | A2 F E | D3 |] 
w: sail _ and from|there he robbed the _|coach called the|mail.|



